X:2
T:Three Sheep Skins
S:John Moore's Book 1
Z:Transcribed by Paul Barber-Riley  March 2016
M:2/4
L:1/8
K:A
%%VWML: Moore1-4493-p2-0
F:http://www.vwml.org/record/Moore1/4493/p2
defg|a2 (gf) | g2(fe) | a2e2:|
|:fddf | eddf | edcB | c2A2:|
